!! 00000] TT[WS
!!!OTL: Kan dauqing
!!!ARE: Asia, China,ÿShanxi Linxian
!! Ethnic Group: Han
!! WI, 245
!!!SCT: J0291
!!!YEM: Copyright 1995, estate of Helmut Schaffrath.
**kern
*ICvox
*Ivox
*M3/8
*k[f#c#]
*D:
{8ee
8ee
8ff#
=1
8dd
8cc#
8b
=2
8ee
8ee
8ff#
=3
4.a}
=4
{8ee
8ee
8ff#
=5
8dd
8cc#
8b
=6
16a
16b
8a
8e
=7
4.d}
=8
{8f#
8e
8d
=9
8dd
8dd
16dd
16ee
=10
8b
8a
8e
=11
4d
8e}
=12
{8a
8a
16a
16b
=13
8dd
8f#
8e
=14
4.d}
==
!!!AGN: Xiaodiao. Fengsu, Qingge, Sichun
!!!ONB: ESAC (Essen Associative Code) Database: CHINA
!!!AMT: simple triple
!!!AIN: vox
!!!EED: Helmut Schaffrath
!!!EEV: 1.0
*-
